!!!!SEGMENT: pl-kk--kk-i-15--007_asola-giovanni-matteo--ave-sanctissima-maria.krn
!!!cenid: 16xx:1124
!!!COM: Asola, Giovanni Matteo
!!!COM-rismID: pe20000387
!!!CDT: <=1532-1609/10/01
!!!CNT: Italian
!!!OTL: Ave sanctissima Maria
!!!PDT:
!!!AGN: Sacred
!!!YEC: Copyright 2022 Narodowy Instytut Fryderyka Chopina (https://polishscores.org)
!!!YEM: License CC-BY-4.0 (https://creativecommons.org/licenses/by/4.0)
!!!SMS-siglum: PL-Kk
!!!SMS-shelfmark: Kk.I.15
!!!SMS-shelfwork: 007 W
!!!SMS-variant:
!!!SMS-altvar:
!!!NIFC-rismSourceID: 1001146379
!!!NIFC-rismChildID: 1001146841
!!!NIFC-islandoraID: pl-kk:2631
!!!URL-pdf-islandora: https://repozytorium.nifc.pl/islandora/object/pl-kk%3A2631/datastream/PDF/view
!!!URL-scan: https://polish.musicsources.pl/pl/lokalizacje/galeria/rekopisy/5777 @EN{Scan on Polish Music Sources Website} @PL{Skany w portalu Dziedzictwo Muzyki Polskiej w otwartym dostępie}
!!!IIIF:
!!!ONB-nifc: UWAGA: C (skan 0005-0006), A (skan 0023-0024), T (skan 0040-0041), B (skan 0058-0059). Następny motet: Tradent enim vos in conciliis
!!!AIN: 1 alto 1 empty 1 tenor 1 vox
!!!key:
**kern	**text	**kern	**text	**kern	**text	**kern	**text
*part4	*	*part3	*	*part2	*	*part1	*
*staff4	*	*staff3	*	*staff2	*	*staff1	*
*Iempty	*	*Itenor	*	*Ialto	*	*Ivox	*
*I"[Baſso]	*	*I"[Tenore.]	*	*I"[Alto]	*	*I"[Canto.]	*
*I'[B]	*	*I'[T.]	*	*I'[A]	*	*I'[S.]	*
*clefF4	*	*clefC4	*	*clefC4	*	*clefC3	*
*k[b-]	*	*k[b-]	*	*k[b-]	*	*k[b-]	*
*g:	*	*g:	*	*g:	*	*g:	*
*M2/1	*	*M2/1	*	*M2/1	*	*M2/1	*
*met(C|)	*	*met(C|)	*	*met(C|)	*	*met(C|)	*
=1-	=1-	=1-	=1-	=1-	=1-	=1-	=1-
!!LO:TX:t=P:problem:all\right:global
!LO:TX:t=P:problem=kreska pseudotaktowa	!	!LO:TX:a:t=7.	!	!LO:TX:t=P:problem=kreska pseudotaktowa	!	!	!
!LO:TX:t=P:problem=przed kluczem inicjał A	!	!LO:TX:t=P:problem=przed kluczem inicjał A	!	!LO:TX:t=P:problem=przed kluczem inicjał A	!	!LO:TX:t=P:problem=przed kluczem inicjał A	!
1r	.	00r	.	1G	A-	00r	.
1G	A-	.	.	1.B-	-ve	.	.
=2-	=2-	=2-	=2-	=2-	=2-	=2-	=2-
*2\right	*	*	*	*	*	*	*
2G\	-ve	.	.	.	.	.	.
!LO:TX:t=P:problem=kreska pseudotaktowa	!	!	!	!LO:TX:t=P:problem=kreska pseudotaktowa	!	!	!
2F\	San-	.	.	2A/	San-	.	.
*	*	*	*	*2\right	*	*	*
2G\	-ctiſ-	.	.	2B-\	-ctiſ-	.	.
2E\	-si-	.	.	2c\	-si-	.	.
=3-	=3-	=3-	=3-	=3-	=3-	=3-	=3-
!	!	!	!	!LO:TX:t=P:problem=kreska pseudotaktowa	!	!LO:TX:t=P:problem=kreska pseudotaktowa	!
2D/	-ma	0r	.	1d	-ma	1r	.
!LO:TX:t=P:problem=kreska pseudotaktowa	!	!	!	!	!	!	!
2D/	Ma-	.	.	.	.	.	.
2.E-X\	-ri-	.	.	1B-	MA-	0G	A-
!LO:TX:t=P:problem=kreska pseudotaktowa	!	!	!	!	!	!	!
4D/	.	.	.	.	.	.	.
=4-	=4-	=4-	=4-	=4-	=4-	=4-	=4-
!	!	!LO:TX:t=P:problem=kreska pseudotaktowa	!	!	!	!	!
1C	.	1r	.	1c	-RI-	.	.
*custos:D	*	*	*	*	*	*	*
!LO:TX:t=P:problem=kreska pseudotaktowa	!	!	!	!	!	!	!
!	!	!	!	!LO:TX:t=P:problem=kreska pseudotaktowa	!	!	!
1GG	-a	1G	A-	0d	-A	1.B-	-ve
=5-	=5-	=5-	=5-	=5-	=5-	=5-	=5-
*	*ij	*	*	*	*	*	*
!LO:LB:g=original	!	!	!	!	!	!	!
1D	A-	2G/	-ve	.	.	.	.
!	!	!LO:TX:t=P:problem=kreska pseudotaktowa	!	!	!	!LO:TX:t=P:problem=kreska pseudotaktowa	!
.	.	2F/	San-	.	.	2A/	san-
2GG/	.	2G/	-ctiſ-	2r	.	2B-/	-ctiſ-
!LO:TX:t=P:problem=kreska pseudotaktowa	!	!LO:TX:t=P:problem=kreska pseudotaktowa	!	!LO:TX:t=P:problem=kreska pseudotaktowa	!	!	!
2AA/	-ve	2E/	-si-	2A/	San-	2c/	-si-
=6-	=6-	=6-	=6-	=6-	=6-	=6-	=6-
2BB-/	San-	2D/	-ma	2F/	-ctiſ-	1.d	-ma
!	!	!	!	!LO:TX:t=P:problem=kreska pseudotaktowa	!	!	!
2GG/	.	1G	.	2B-\	-si-	.	.
1D	-ctiſ-	.	.	2A/	-ma	.	.
*	*	*	*	*	*	*2\right	*
!	!	!LO:TX:t=P:problem=kreska pseudotaktowa	!	!	!	!LO:TX:t=P:problem=kreska pseudotaktowa	!
.	.	2F/	MA-	2.B-\	Ma-	2d\	MA-
=7-	=7-	=7-	=7-	=7-	=7-	=7-	=7-
!LO:TX:t=P:problem=kreska pseudotaktowa	!	!	!	!	!	!	!
*	*	*lig	*	*	*	*	*
1E-X	-si-	1G	-RI-	.	.	2B-/	-RI-
*	*	*	*	*custos:G	*	*	*
.	.	.	.	4A\	.	.	.
!	!	!	!	!LO:LB:g=original	!	!	!
.	.	.	.	1G	.	2c/	.
!	!	!	!	!	!	!LO:TX:t=P:problem=kreska pseudotaktowa	!
1D	.	1A	.	.	.	1d	-A
!	!	!	!	!LO:TX:t=P:problem=kreska pseudotaktowa	!	!	!
.	.	.	.	2F/	-ri-	.	.
*	*	*Xlig	*	*	*	*	*
=8-	=8-	=8-	=8-	=8-	=8-	=8-	=8-
!LO:TX:t=P:problem=kreska pseudotaktowa	!	!	!	!	!	!	!
1GG	-ma	0G	-A	2G,</	-a	2r	.
*	*Xij	*	*	*	*	*	*
.	.	.	.	1B-	Ma-	1d	Ma-
2r	.	.	.	.	.	.	.
!	!	!	!	!LO:TX:t=P:problem=kreska pseudotaktowa	!	!	!
1G\	Ma-	.	.	2B-\	-ter	2d\	-ter
=9-	=9-	=9-	=9-	=9-	=9-	=9-	=9-
*	*	*	*	*lig	*	*lig	*
.	.	2rF	.	1B-	DE-	1e-X	De-
!LO:TX:t=P:problem=kreska pseudotaktowa	!	!	!	!	!	!	!
2G\	-ter	1G	Ma-	.	.	.	.
*lig	*	*	*	*col	*	*	*
*	*	*	*	*	*	*custos:d	*
1C	DE-	.	.	2.c\	.	1f	.
.	.	2G/	-ter	.	.	.	.
*	*	*	*	*Xlig	*	*Xlig	*
!	!	!	!	!LO:TX:t=P:problem=kreska pseudotaktowa	!	!	!
.	.	.	.	4B-\	.	.	.
*	*	*	*	*Xcol	*	*	*
=10-	=10-	=10-	=10-	=10-	=10-	=10-	=10-
*	*	*custos:G	*	*	*	*	*
!	!	!	!	!	!	!LO:TX:t=P:problem=kreska pseudotaktowa	!
!	!	!	!	!	!	!LO:LB:g=original	!
1D	.	1F#X	De-	4A\	.	0d	-i
.	.	.	.	4G\	.	.	.
!	!	!	!	!LO:TX:t=P:problem=kreska pseudotaktowa	!	!	!
.	.	.	.	2A/	.	.	.
*Xlig	*	*	*	*	*	*	*
!	!	!LO:LB:g=original	!	!	!	!	!
2GG,</	-i	1G	.	1B-	.	.	.
!LO:TX:t=P:problem=kreska pseudotaktowa	!	!	!	!	!	!	!
2G\	Re-	.	.	.	.	.	.
=11-	=11-	=11-	=11-	=11-	=11-	=11-	=11-
!	!	!LO:TX:t=P:problem=kreska pseudotaktowa	!	!LO:TX:t=P:problem=kreska pseudotaktowa	!	!	!
2G\	-gi-	1D	-i	1A	-i	2r	.
*	*	*	*	*	*	*	*ij
*custos:B	*	*	*	*	*	*	*
!LO:TX:t=P:problem=kreska pseudotaktowa	!	!	!	!	!	!	!
2F\	-na	.	.	.	.	1d	Ma-
*lig	*	*	*	*	*	*	*
!LO:LB:g=original	!	!	!	!	!	!	!
1B-	Cae-	0r	.	2r	.	.	.
.	.	.	.	2G/	Re-	2d\	-ter
=12-	=12-	=12-	=12-	=12-	=12-	=12-	=12-
1A	-li	.	.	2G/	-gi-	0d	De-
!	!	!	!	!LO:TX:t=P:problem=kreska pseudotaktowa	!	!	!
.	.	.	.	2F/	-na	.	.
*Xlig	*	*	*	*lig	*	*	*
2G,<\	.	2rF	.	1B-	Cae-	.	.
!LO:TX:t=P:problem=kreska pseudotaktowa	!	!LO:TX:t=P:problem=kreska pseudotaktowa	!	!	!	!	!
2GG/	Re-	2G/	Re-	.	.	.	.
=13-	=13-	=13-	=13-	=13-	=13-	=13-	=13-
!	!	!	!	!	!	!LO:TX:t=P:problem=kreska pseudotaktowa	!
2.D/	-gi-	2G/	-gi-	1A	.	0d	-i
*	*	*	*	*	*	*	*Xij
.	.	2Fny/	-na	.	.	.	.
4C/	-na	.	.	.	.	.	.
*	*	*lig	*	*Xlig	*	*	*
!	!	!	!	!LO:TX:t=P:problem=kreska pseudotaktowa	!	!	!
2BB-/	.	1B-	cae-	1G	-li	.	.
!LO:TX:t=P:problem=kreska pseudotaktowa	!	!	!	!	!	!	!
2GG/	.	.	.	.	.	.	.
=14-	=14-	=14-	=14-	=14-	=14-	=14-	=14-
*lig	*	*	*	*	*	*	*
1D-X	Cae-	1A	.	2rF	.	2r	.
*	*	*	*	*	*ij	*	*
!	!	!	!	!LO:TX:t=P:problem=kreska pseudotaktowa	!	!	!
.	.	.	.	2F/	Re-	2d\	Re-
*	*	*Xlig	*	*	*	*	*
!	!	!LO:TX:t=P:problem=kreska pseudotaktowa	!	!	!	!	!
1Eny	.	1G	-li	2G/	-gi-	2d\	-gi-
*	*	*	*	*custos:A	*	*	*
!	!	!	!	!	!	!LO:TX:t=P:problem=kreska pseudotaktowa	!
.	.	.	.	2G/	-na	2c/	-na
*Xlig	*	*	*	*	*	*	*
=15-	=15-	=15-	=15-	=15-	=15-	=15-	=15-
!LO:TX:t=P:problem=kreska pseudotaktowa	!	!	!	!	!	!	!
*	*	*	*	*	*	*lig	*
!	!	!	!	!LO:LB:g=original	!	!	!
1D-y	-li	2r	.	2A/	cae-	1f	cae-
*	*	*	*ij	*	*	*	*
.	.	2D/	Re-	1d	.	.	.
1r	.	2A/	-gi-	.	.	1eny	.
!	!	!LO:TX:t=P:problem=kreska pseudotaktowa	!	!LO:TX:t=P:problem=kreska pseudotaktowa	!	!	!
.	.	2A/	-na	2c\	.	.	.
*	*	*	*	*	*	*Xlig	*
=16-	=16-	=16-	=16-	=16-	=16-	=16-	=16-
!	!	!	!	!	!	!LO:TX:t=P:problem=kreska pseudotaktowa	!
2r	.	1B-	Cae-	1d	-li	0d	-li
*	*	*	*	*	*Xij	*	*
1G	Por-	.	.	.	.	.	.
.	.	2A/	-li	2r	.	.	.
*	*	*2\right	*	*	*	*	*
!LO:TX:t=P:problem=kreska pseudotaktowa	!	!	!	!LO:TX:t=P:problem=kreska pseudotaktowa	!	!	!
2F\	-ta	2.d\	por-	2A/	Por-	.	.
*	*	*	*Xij	*	*	*	*
=17-	=17-	=17-	=17-	=17-	=17-	=17-	=17-
2G\	Pa-	.	.	2B-\	-ta	1r	.
.	.	4c\	.	.	.	.	.
2G\	-ra-	4B-\	.	1d	Pa-	.	.
!	!	!LO:TX:t=P:problem=kreska pseudotaktowa	!	!	!	!	!
.	.	4A\	.	.	.	.	.
1E	-dy-	2G/	.	.	.	2r	.
*	*	*custos:A	*	*	*	*	*
!	!	!	!	!LO:TX:t=P:problem=kreska pseudotaktowa	!	!	!
.	.	2G/	-ta	2c\	-ra-	1g	Por-
=18-	=18-	=18-	=18-	=18-	=18-	=18-	=18-
*custos:AA	*	*	*	*	*	*	*
!LO:TX:t=P:problem=kreska pseudotaktowa	!	!	!	!	!	!	!
!	!	!LO:LB:g=original	!	!	!	!	!
1Dny	-si	2A/	Pa-	1d	-dy-	.	.
!	!	!LO:TX:t=P:problem=kreska pseudotaktowa	!	!	!	!LO:TX:t=P:problem=kreska pseudotaktowa	!
.	.	2A/	-ra-	.	.	2f\	-ta
!LO:TX:t=P:problem=kreska pseudotaktowa	!	!	!	!LO:TX:t=P:problem=kreska pseudotaktowa	!	!	!
!LO:LB:g=original	!	!	!	!	!	!	!
1r	.	4B-\	.	1G,<	-si	2g\	Pa-
.	.	4c\	.	.	.	.	.
.	.	1d\	-dy-	.	.	2g\	-ra-
=19-	=19-	=19-	=19-	=19-	=19-	=19-	=19-
1AA	Do-	.	.	1A	Do-	1e	-dy-
!	!	!LO:TX:t=P:problem=kreska pseudotaktowa	!	!	!	!	!
.	.	2c\	.	.	.	.	.
*	*	*	*	*	*	*custos:f	*
!	!	!	!	!	!	!LO:TX:t=P:problem=kreska pseudotaktowa	!
2D/	-mi-	2d,<\	-si	1.d	.	1d	-si
!LO:TX:t=P:problem=kreska pseudotaktowa	!	!	!	!	!	!	!
2D/	-na	1B-\	Do-	.	.	.	.
=20-	=20-	=20-	=20-	=20-	=20-	=20-	=20-
!	!	!	!	!	!	!LO:LB:g=original	!
1E-X	Mun-	.	.	.	.	1r	.
!	!	!LO:TX:t=P:problem=kreska pseudotaktowa	!	!LO:TX:t=P:problem=kreska pseudotaktowa	!	!	!
.	.	2G/	-mi-	2c\	-mi-	.	.
!	!	!	!	!LO:TX:t=P:problem=kreska pseudotaktowa	!	!	!
2D,</	-di	2A/	-na	0d	-na	1.f	Do-
1BB-/	Do-	2.B-\	mun-	.	.	.	.
=21-	=21-	=21-	=21-	=21-	=21-	=21-	=21-
.	.	.	.	.	.	.	.
.	.	4A/	.	.	.	.	.
!LO:TX:t=P:problem=kreska pseudotaktowa	!	!	!	!	!	!LO:TX:t=P:problem=kreska pseudotaktowa	!
2BB-/	-mi-	4F/	.	.	.	2f\	-mi-
!	!	!LO:TX:t=P:problem=kreska pseudotaktowa	!	!	!	!	!
.	.	4G/	.	.	.	.	.
1C	-na	4A/	.	2.c\	mun-	1e	-na
.	.	4G/	.	.	.	.	.
.	.	1G/	.	.	.	.	.
.	.	.	.	4B-\	.	.	.
=22-	=22-	=22-	=22-	=22-	=22-	=22-	=22-
!LO:TX:t=P:problem=kreska pseudotaktowa	!	!	!	!LO:TX:t=P:problem=kreska pseudotaktowa	!	!	!
1D	Mun-	.	.	1A	.	1d	mun-
.	.	2F/	.	.	.	.	.
!LO:TX:t=P:problem=kreska pseudotaktowa	!	!LO:TX:t=P:problem=kreska pseudotaktowa	!	!	!	!LO:TX:t=P:problem=kreska pseudotaktowa	!
1GG	-di	1G	-di	2.B-\	.	1d	-di
*	*	*	*	*custos:d	*	*	*
.	.	.	.	4c\	.	.	.
=23-	=23-	=23-	=23-	=23-	=23-	=23-	=23-
*lig	*	*	*	*	*	*	*
*	*	*custos:d	*	*	*	*	*
!	!	!	!	!LO:TX:t=P:problem=kreska pseudotaktowa	!	!	!
!	!	!	!	!LO:LB:g=original	!	!	!
1G	Pu-	1r	.	1d	-di	2r	.
*	*	*	*	*	*	*lig	*
.	.	.	.	.	.	1d	Pu-
!	!	!LO:LB:g=original	!	!	!	!	!
1.B-	.	1.d	Pu-	00r	.	.	.
.	.	.	.	.	.	1f\	.
*Xlig	*	*	*	*	*	*Xlig	*
=24-	=24-	=24-	=24-	=24-	=24-	=24-	=24-
.	.	.	.	.	.	.	.
!LO:TX:t=P:problem=kreska pseudotaktowa	!	!LO:TX:t=P:problem=kreska pseudotaktowa	!	!	!	!LO:TX:t=P:problem=kreska pseudotaktowa	!
2A\	-ra	2c\	-ra	.	.	2f\	-ra
2G\	Sin-	2B-\	sin-	.	.	2e\	sin-
2F\	-gu-	2A/	-gu-	.	.	4d\	-gu-
.	.	.	.	.	.	2d\	-la-
=25-	=25-	=25-	=25-	=25-	=25-	=25-	=25-
!	!	!LO:TX:t=P:problem=kreska pseudotaktowa	!	!	!	!	!
1E-X	-la-	1G	-la-	.	.	.	.
.	.	.	.	.	.	8c/L	.
.	.	.	.	.	.	8B-/J	.
!	!	!	!	!	!	!LO:TX:t=P:problem=kreska pseudotaktowa	!
.	.	.	.	.	.	2c#X/	-ris
*custos:G	*	*	*	*	*	*	*
!LO:TX:t=P:problem=kreska pseudotaktowa	!	!	!	!	!	!	!
!	!	!	!	!	!	!LO:TX:t=P:problem=kreska pseudotaktowa	!
1D	-ris	2A,</	-ris	2r	.	1d	.
*	*	*	*ij	*	*	*	*
.	.	1B-\	Pu-	1d\	Pu-	.	.
=26-	=26-	=26-	=26-	=26-	=26-	=26-	=26-
!LO:LB:g=original	!	!	!	!	!	!LO:TX:t=P:problem=kreska pseudotaktowa	!
0r	.	.	.	.	.	0r	.
!	!	!LO:TX:t=P:problem=kreska pseudotaktowa	!	!LO:TX:t=P:problem=kreska pseudotaktowa	!	!	!
.	.	2A/	-ra	2c\	-ra	.	.
.	.	2G/	sin-	2B-\	sin-	.	.
.	.	2F/	-gu-	2A/	-gu-	.	.
=27-	=27-	=27-	=27-	=27-	=27-	=27-	=27-
2r	.	1E-X	-la-	2B-\	-la-	1G	Tu
!	!	!	!	!LO:TX:t=P:problem=kreska pseudotaktowa	!	!	!
1G	Tu	.	.	2c\	-ris	.	.
*	*	*	*	*	*	*custos:B	*
!	!	!LO:TX:t=P:problem=kreska pseudotaktowa	!	!LO:TX:t=P:problem=kreska pseudotaktowa	!	!	!
.	.	1D	-ris	1d	.	1A	es
*	*	*	*Xij	*	*	*	*
!LO:TX:t=P:problem=kreska pseudotaktowa	!	!	!	!	!	!	!
2F\	es	.	.	.	.	.	.
=28-	=28-	=28-	=28-	=28-	=28-	=28-	=28-
*	*	*	*	*	*	*lig	*
!	!	!	!	!	!	!LO:LB:g=original	!
1G	Vir-	2rF	.	2rc	.	1B-	Vir-
.	.	1G	Tu	1d	Tu	.	.
!LO:TX:t=P:problem=kreska pseudotaktowa	!	!	!	!	!	!LO:TX:t=P:problem=kreska pseudotaktowa	!
1D	-go	.	.	.	.	1A	.
!	!	!LO:TX:t=P:problem=kreska pseudotaktowa	!	!LO:TX:t=P:problem=kreska pseudotaktowa	!	!	!
.	.	2F/	es	2d\	es	.	.
*	*	*	*	*	*	*Xlig	*
=29-	=29-	=29-	=29-	=29-	=29-	=29-	=29-
*	*	*	*	*lig	*	*	*
1r	.	1G	Vir-	1B-	Vir-	2G/	-go
*	*	*	*	*	*	*	*ij
.	.	.	.	.	.	1g	Tu
2r	.	2D/	-go	1A	.	.	.
*	*	*	*ij	*	*	*	*
!LO:TX:t=P:problem=kreska pseudotaktowa	!	!	!	!	!	!LO:TX:t=P:problem=kreska pseudotaktowa	!
2D/	Tu	1d\	Tu	.	.	2f\	es
*	*	*	*	*Xlig	*	*	*
=30-	=30-	=30-	=30-	=30-	=30-	=30-	=30-
1GG	es	.	.	2G/	.	1g	Vir-
*	*	*custos:B	*	*	*	*	*
!	!	!LO:TX:t=P:problem=kreska pseudotaktowa	!	!	!	!	!
!	!	!	!	!LO:TX:t=P::problem=kreska pseudotaktowa&colon;między nutą a kropką	!	!	!
.	.	2d\	es	2.B-\	.	.	.
*	*	*lig	*	*	*	*	*
!	!	!LO:LB:g=original	!	!	!	!LO:TX:t=P:problem=kreska pseudotaktowa	!
2.BB-/	Vir-	1B-	Vir-	.	.	0.d	-go
*	*	*	*	*	*	*	*Xij
.	.	.	.	4A/	.	.	.
.	.	.	.	1G/	.	.	.
!LO:TX:t=P:problem=kreska pseudotaktowa	!	!	!	!	!	!	!
4C/	-go	.	.	.	.	.	.
=31-	=31-	=31-	=31-	=31-	=31-	=31-	=31-
!	!	!	!	!	!	!	!
1D	.	1A	.	.	.	.	.
.	.	.	.	2F/	-go	.	.
*	*	*Xlig	*	*	*	*	*
!LO:TX:t=P:problem=kreska pseudotaktowa	!	!	!	!LO:TX:t=P:problem=kreska pseudotaktowa	!	!	!
1GG	.	2G,</	-go	0G	.	.	.
*	*	*	*Xij	*	*	*	*
!	!	!LO:TX:t=P:problem=kreska pseudotaktowa	!	!	!	!	!
.	.	2d\	Tu	.	.	.	.
=32-	=32-	=32-	=32-	=32-	=32-	=32-	=32-
2r	.	2d\	con-	.	.	00r	.
!LO:TX:t=P:problem=kreska pseudotaktowa	!	!	!	!	!	!	!
2G\	Tu	2d\	-ce-	.	.	.	.
2G\	Con-	2B-\	-pis-	2rc	.	.	.
*	*	*	*	*custos:d	*	*	*
!LO:TX:t=P:problem=kreska pseudotaktowa	!	!LO:TX:t=P:problem=kreska pseudotaktowa	!	!	!	!	!
2G\	-ce-	2G/	-ti	2d\	Tu	.	.
=33-	=33-	=33-	=33-	=33-	=33-	=33-	=33-
!	!	!	!	!LO:LB:g=original	!	!	!
2F\	-pis-	1A	Je-	2d\	con-	.	.
*custos:E	*	*	*	*	*	*	*
!LO:TX:t=P:problem=kreska pseudotaktowa	!	!	!	!	!	!	!
2D/	-ti	.	.	2d\	-ce-	.	.
!LO:PB:g=original	!	!LO:TX:t=P:problem=kreska pseudotaktowa	!	!	!	!	!
1E-X	JE-	1G	-sum	2B-\	-pi-	.	.
!	!	!	!	!LO:TX:t=P:problem=kreska pseudotaktowa	!	!	!
.	.	.	.	2G/	-sti	.	.
=34-	=34-	=34-	=34-	=34-	=34-	=34-	=34-
!LO:TX:t=P:problem=kreska pseudotaktowa	!	!	!	!	!	!	!
1D	-SUM	2r	.	1A	JE-	2r	.
*	*	*	*ij	*	*	*	*
!	!	!	!	!	!	!LO:TX:t=P:problem=kreska pseudotaktowa	!
.	.	2F/	Tu	.	.	2d\	Tu
!	!	!	!	!LO:TX:t=P:problem=kreska pseudotaktowa	!	!	!
2r	.	2.B-\	con-	1G	-SUM	2d\	con-
*	*ij	*	*	*	*	*	*
2G\	Tu	.	.	.	.	2d\	-ce-
!	!	!LO:TX:t=P:problem=kreska pseudotaktowa	!	!	!	!	!
.	.	4c\	.	.	.	.	.
=35-	=35-	=35-	=35-	=35-	=35-	=35-	=35-
2G\	con-	2d\	-ce-	2r	.	2B-/	-pi-
*	*	*	*	*	*ij	*	*
!LO:TX:t=P:problem=kreska pseudotaktowa	!	!	!	!LO:TX:t=P:problem=kreska pseudotaktowa	!	!LO:TX:t=P:problem=kreska pseudotaktowa	!
2G\	-ce-	2B-\	-pi-	2d\	Tu	2G/	-sti
2F\	-pis-	2A/	.	2d\	con-	1A	JE-
!	!	!LO:TX:t=P:problem=kreska pseudotaktowa	!	!LO:TX:t=P:problem=kreska pseudotaktowa	!	!	!
2D/	-ti	2F/	-sti	2d\	-ce-	.	.
*	*	*	*Xij	*	*	*	*
=36-	=36-	=36-	=36-	=36-	=36-	=36-	=36-
1E-X	JE-	4G\	Je-	2B-\	-pi-	2G/	-SUM
.	.	4A\	.	.	.	.	.
!	!	!	!	!	!	!LO:TX:t=P:problem=kreska pseudotaktowa	!
.	.	4B-\	.	2G/	-sti	2g\	ſi-
*	*	*custos:d	*	*	*	*	*
.	.	4c\	.	.	.	.	.
*	*	*	*	*	*	*custos:f	*
!LO:TX:t=P:problem=kreska pseudotaktowa	!	!LO:LB:g=original	!	!LO:TX:t=P:problem=kreska pseudotaktowa	!	!	!
1D,<	-SUM	1d	.	1A	JE-	2g\	-ne
*	*Xij	*	*	*	*	*	*
!	!	!	!	!	!	!LO:TX:t=P:problem=kreska pseudotaktowa	!
!	!	!	!	!	!	!LO:LB:g=original	!
.	.	.	.	.	.	2f\	pec-
=37-	=37-	=37-	=37-	=37-	=37-	=37-	=37-
1G	Si-	2B-,<\	-sum	2G,</	-SUM	2.g\	-ca-
*	*	*	*	*	*Xij	*	*
!	!	!LO:TX:t=P:problem=kreska pseudotaktowa	!	!	!	!	!
.	.	2B-\	si-	2d\	Si-	.	.
.	.	.	.	.	.	4f\	.
2C/	-ne	2G/	-ne	2c\	-ne	2e\	.
!	!	!LO:TX:t=P:problem=kreska pseudotaktowa	!	!LO:TX:t=P::problem=kreska pseudotaktowa&colon;między nutą a kropką	!	!LO:TX:t=P::problem=kreska pseudotaktowa&colon;między nutą i kropką	!
2D/	pec-	2F/	pec-	2.B-\	pec-	2.d\	.
=38-	=38-	=38-	=38-	=38-	=38-	=38-	=38-
*lig	*	*lig	*	*	*	*	*
1E-X	-ca-	1G	-ca-	.	.	.	.
.	.	.	.	4A/	-ca-	8cny/L	.
.	.	.	.	.	.	8B-/J	.
.	.	.	.	1G	-to	2c#X/	-to
!LO:TX:t=P:problem=kreska pseudotaktowa	!	!	!	!	!	!LO:TX:t=P:problem=kreska pseudotaktowa	!
1D	.	1A	.	.	.	0d	.
!	!	!	!	!LO:TX:t=P:problem=kreska pseudotaktowa	!	!	!
.	.	.	.	2F/	.	.	.
*Xlig	*	*Xlig	*	*	*	*	*
=39-	=39-	=39-	=39-	=39-	=39-	=39-	=39-
*	*	*	*	*custos:d	*	*	*
!	!	!	!	!LO:TX:t=P:problem=kreska pseudotaktowa	!	!	!
2GG,</	-to	1B-	-to	1G	.	.	.
2G\	Tu	.	.	.	.	.	.
!	!	!LO:TX:t=P:problem=kreska pseudotaktowa	!	!LO:TX:t=P:problem=urwana kartka	!	!	!
!	!	!	!	!LO:PB:g=original	!	!	!
2F\	pe-	1A	.	2r	.	1r	.
*custos:F	*	*	*	*	*	*	*
!LO:TX:t=P:problem=kreska pseudotaktowa	!	!	!	!	!	!	!
!	!	!	!	!LO:TX:t=P:problem=kreska pseudotaktowa	!	!	!
2D/	-pe-	.	.	2d\	Tu	.	.
=40-	=40-	=40-	=40-	=40-	=40-	=40-	=40-
!LO:LB:g=original	!	!	!	!LO:TX:a:t=P:problem=To nuta wydumana z kontekstu, dlatego ukryta(J.I.)	!	!	!
1F	-ris-	1r	.	2c/yy	-pe-	2r	.
!	!	!	!	!LO:TX:t=P:problem=kreska pseudotaktowa	!	!LO:TX:t=P:problem=kreska pseudotaktowa	!
.	.	.	.	2A/	-pe-	2f\	Tu
!LO:TX:t=P:problem=kreska pseudotaktowa	!	!	!	!LO:TX:a:t=P:problem=moim zdaniem to semibrevis - ogonka nie urwało razem z kartką(J.I.)	!	!	!
1C	-ti	2r	.	1c	-ris-	2.e\	pe-
!	!	!LO:TX:t=P:problem=kreska pseudotaktowa	!	!	!	!	!
.	.	2c\	Tu	.	.	.	.
.	.	.	.	.	.	8d\L	.
!	!	!	!	!	!	!LO:TX:t=P:problem=kreska pseudotaktowa	!
.	.	.	.	.	.	8cny\J	.
=41-	=41-	=41-	=41-	=41-	=41-	=41-	=41-
!	!	!	!	!LO:TX:t=P:problem=kreska pseudotaktowa	!	!	!
2r	.	2B-\	pe-	1G	-ti	2d\	.
*	*ij	*	*	*	*	*	*
!	!	!	!	!	!	!LO:TX:t=P:problem=kreska pseudotaktowa	!
2C/	Tu	2G/	-pe-	.	.	2e\	-pe-
2BB-/	pe-	1B-	-ris-	1rA	.	2.d\	-ri-
!LO:TX:t=P:problem=kreska pseudotaktowa	!	!	!	!	!	!	!
2GG/	-pe-	.	.	.	.	.	.
.	.	.	.	.	.	4e\	-sti
=42-	=42-	=42-	=42-	=42-	=42-	=42-	=42-
!	!	!LO:TX:t=P:problem=kreska pseudotaktowa	!	!	!	!	!
1D	-ris-	1A	-ti	2rF	.	1f	.
.	.	.	.	1d	Cre-	.	.
*	*	*	*	*	*	*custos:f	*
!	!	!	!	!	!	!LO:TX:t=P:problem=kreska pseudotaktowa	!
!LO:TX:t=P:problem=kreska pseudotaktowa	!	!LO:TX:a:t=P:problem=ziterpretowałnym to jednak jako kropkę, choć graficznie na dwoje babka...(J.I.)	!	!	!	!	!
1AA	-ti	1.A	Cre-	.	.	1e	.
*	*Xij	*	*	*	*	*	*
!	!	!	!	!LO:TX:t=P:problem=kreska pseudotaktowa	!	!	!
.	.	.	.	2d\	-a-	.	.
=43-	=43-	=43-	=43-	=43-	=43-	=43-	=43-
!	!	!	!	!	!	!LO:LB:g=original	!
1.D	Cre-	.	.	1d	-to-	2r	.
!	!	!LO:TX:t=P:problem=kreska pseudotaktowa	!	!	!	!	!
.	.	2A/	-a-	.	.	1f	Cre-
.	.	1A	-to-	1.d	-rem	.	.
!LO:TX:t=P:problem=kreska pseudotaktowa	!	!	!	!	!	!LO:TX:t=P:problem=kreska pseudotaktowa	!
2D/	-a-	.	.	.	.	2f\	-a-
=44-	=44-	=44-	=44-	=44-	=44-	=44-	=44-
*	*	*custos:G	*	*	*	*	*
1BB-	-to-	1B-	-rem	.	.	1f	-to-
!	!	!	!	!LO:TX:t=P:problem=kreska pseudotaktowa	!	!	!
.	.	.	.	2d\	et	.	.
!LO:TX:t=P:problem=kreska pseudotaktowa	!	!LO:LB:g=original	!	!	!	!LO:TX:t=P:problem=kreska pseudotaktowa	!
1C	-rem	1.G	et	2c\	Sal-	1e	-rem
.	.	.	.	2c\	-va-	.	.
=45-	=45-	=45-	=45-	=45-	=45-	=45-	=45-
2GG/	et	.	.	1B-	-to-	2d\	et
1D	Sal-	1F	Sal-	.	.	1d	Sal-
!	!	!	!	!LO:TX:t=P:problem=kreska pseudotaktowa	!	!	!
.	.	.	.	1A	-rem	.	.
!LO:TX:t=P:problem=kreska pseudotaktowa	!	!LO:TX:t=P:problem=kreska pseudotaktowa	!	!	!	!LO:TX:t=P:problem=kreska pseudotaktowa	!
2D/	-va-	2F/	-va-	.	.	2f\	-va-
=46-	=46-	=46-	=46-	=46-	=46-	=46-	=46-
*	*	*	*	*lig	*	*	*
1C	-to-	1.G	-to-	1c	Mun-	2e\	-to-
.	.	.	.	.	.	2c/	-rem
!LO:TX:t=P:problem=kreska pseudotaktowa	!	!	!	!	!	!	!
*	*	*	*	*col	*	*	*
1GG	-rem	.	.	2.B-\	.	1d	mun-
.	.	2G/	-rem	.	.	.	.
*	*	*	*	*Xlig	*	*	*
.	.	.	.	8A/L	.	.	.
*	*	*	*	*custos:A	*	*	*
!	!	!	!	!LO:TX:t=P:problem=kreska pseudotaktowa	!	!	!
.	.	.	.	8G/J	.	.	.
*	*	*	*	*Xcol	*	*	*
=47-	=47-	=47-	=47-	=47-	=47-	=47-	=47-
*custos:GG	*	*	*	*	*	*	*
!LO:TX:t=P:problem=kreska pseudotaktowa	!	!	!	!	!	!	!
!	!	!LO:TX:t=P:problem=kreska pseudotaktowa	!	!LO:LB:g=original	!	!LO:TX:t=P:problem=kreska pseudotaktowa	!
1D	Mun-	1F	Mun-	1A	.	0d	-di
!LO:LB:g=original	!	!	!	!	!	!	!
2GG,</	-di	2G/	-di	2G,</	-di	.	.
!LO:TX:t=P:problem=kreska pseudotaktowa	!	!LO:TX:t=P:problem=kreska pseudotaktowa	!	!LO:TX:t=P:problem=kreska pseudotaktowa	!	!	!
2GG/	in	2G/	in	2B-\	in	.	.
=48-	=48-	=48-	=48-	=48-	=48-	=48-	=48-
2.D/	quo	2.F/	quo	2A/	quo	2r	.
!	!	!	!	!LO:TX:t=P:problem=kreska pseudotaktowa	!	!	!
.	.	.	.	2d\	non	2f\	In
!LO:TX:t=P:problem=kreska pseudotaktowa	!	!LO:TX:t=P:problem=kreska pseudotaktowa	!	!	!	!	!
4Eny	.	4G/	.	.	.	.	.
4F\	.	4A/	.	2.c\	du-	2f\	quo
4G\	.	4B-\	.	.	.	.	.
!	!	!	!	!	!	!LO:TX:t=P:problem=kreska pseudotaktowa	!
1A\	.	1c\	.	.	.	2e\	non
.	.	.	.	4c\	-bi-	.	.
=49-	=49-	=49-	=49-	=49-	=49-	=49-	=49-
.	.	.	.	2A/	-ta-	2.f\	du-
!LO:TX:t=P:problem=kreska pseudotaktowa	!	!LO:TX:t=P:problem=kreska pseudotaktowa	!	!LO:TX:t=P:problem=kreska pseudotaktowa	!	!	!
2F\	non	2A/	non	2A/	-mus	.	.
!	!	!	!	!	!	!LO:TX:t=P:problem=kreska pseudotaktowa	!
.	.	.	.	.	.	4e\	.
*	*	*	*	*	*ij	*	*
!	!	!	!	!	!	!LO:TX:t=P:problem=urwana kartka	!
2.B-\	du-	2.d\	du-	2B-\	in	4d\	.
.	.	.	.	.	.	4ryy	.
!	!	!	!	!	!	!LO:PB:g=original	!
.	.	.	.	1d\	quo	1f\	-bi-
4A\	-bi-	4c\	.	.	.	.	.
=50-	=50-	=50-	=50-	=50-	=50-	=50-	=50-
(<1G	-ta-	4B-\	.	.	.	.	.
.	.	4A\	.	.	.	.	.
!	!	!	!	!	!	!LO:TX:t=P:problem=kreska pseudotaktowa	!
.	.	1B-	.	4c\	non	2e\	-ta-
!	!	!	!	!LO:TX:t=P:problem=kreska pseudotaktowa	!	!	!
.	.	.	.	4B-\	du-	.	.
!LO:TX:t=P:problem=kreska pseudotaktowa	!	!	!	!	!	!LO:TX:t=P:problem=kreska pseudotaktowa	!
1F)	.	.	.	2c\	-bi-	0f	-m(us)
*	*	*custos:B	*	*	*	*	*
!	!	!LO:TX:t=P:problem=kreska pseudotaktowa	!	!	!	!	!
.	.	2A/	-bi-	2c\	-ta-	.	.
=51-	=51-	=51-	=51-	=51-	=51-	=51-	=51-
!	!	!LO:LB:g=original	!	!	!	!	!
2BB-,</	-mus	2B-\	-ta-	2d,<\	-mus	.	.
*	*	*	*	*	*Xij	*	*
!	!	!	!	!LO:TX:t=P:problem=kreska pseudotaktowa	!	!	!
2.B-\	Li-	2G/	.	2B-\	Li-	.	.
!	!	!LO:TX:t=P:problem=kreska pseudotaktowa	!	!	!	!	!
.	.	1F	-mus	2c\	-be-	2r	.
4B-\	-be-	.	.	.	.	.	.
!LO:TX:t=P:problem=kreska pseudotaktowa	!	!	!	!	!	!	!
2A\	-ra	.	.	2c\	-ra	2.f\	Li-
=52-	=52-	=52-	=52-	=52-	=52-	=52-	=52-
*	*	*	*	*custos:B	*	*	*
2B-\	Nos	2r	.	2d\	Nos	.	.
.	.	.	.	.	.	4f\	-be-
!LO:TX:t=P:problem=kreska pseudotaktowa	!	!	!	!LO:LB:g=original	!	!	!
!	!	!	!	!LO:TX:t=P:problem=kreska pseudotaktowa	!	!LO:TX:t=P:problem=kreska pseudotaktowa	!
2G\	ab	2.B-\	Li-	2B-\	ab	2e\	-ra
*custos:F	*	*	*	*	*	*	*
2F\	o-	.	.	2.c\	om-	2f\	Nos
.	.	4B-\	-be-	.	.	.	.
!LO:TX:t=P:problem=kreska pseudotaktowa	!	!LO:TX:t=P:problem=kreska pseudotaktowa	!	!	!	!	!
!LO:LB:g=original	!	!	!	!	!	!	!
2F\	-mni	2A/	-ra	.	.	2f\	ab
.	.	.	.	4c\	-ni	.	.
=53-	=53-	=53-	=53-	=53-	=53-	=53-	=53-
2G\	Ma-	2B-\	Nos	1G	ma-	2d\	om-
!	!	!LO:TX:t=P:problem=kreska pseudotaktowa	!	!	!	!LO:TX:t=P:problem=kreska pseudotaktowa	!
2E-X\	-lo	2G/	ab	.	.	2c/	-ni
!LO:TX:t=P:problem=kreska pseudotaktowa	!	!	!	!LO:TX:t=P:problem=kreska pseudotaktowa	!	!	!
1D	.	2F/	om-	1A	-lo	2.d\	ma-
.	.	2F/	-ni	.	.	.	.
.	.	.	.	.	.	4c/	.
=54-	=54-	=54-	=54-	=54-	=54-	=54-	=54-
0r	.	2G/	.	2r	.	2B-/	.
*	*	*	*	*	*ij	*	*
!	!	!LO:TX:t=P:problem=kreska pseudotaktowa	!	!	!	!LO:TX:t=P:problem=kreska pseudotaktowa	!
.	.	2E-X/	Ma-	2.B-\	Li-	2G/	.
!	!	!LO:TX:t=P:problem=kreska pseudotaktowa	!	!	!	!	!
.	.	1D	-lo	.	.	2d,<\	-lo
.	.	.	.	4B-\	-be-	.	.
!	!	!	!	!LO:TX:t=P:problem=kreska pseudotaktowa	!	!	!
.	.	.	.	2A/	-ra	2.f\	li-
=55-	=55-	=55-	=55-	=55-	=55-	=55-	=55-
!	!	!LO:TX:t=P:problem=kreska pseudotaktowa	!	!	!	!	!
2r	.	1rA	.	2B-\	nos	.	.
.	.	.	.	.	.	4f\	-be-
*	*ij	*	*	*	*	*	*
*	*	*	*	*	*	*custos:f	*
!	!	!	!	!	!	!LO:TX:t=P:problem=kreska pseudotaktowa	!
2.B-\	Li-	.	.	2G/	ab	2e\	-ra
!	!	!	!	!	!	!LO:LB:g=original	!
.	.	1D	ab	2F/	om-	2.f\	Nos
4B-\	-be-	.	.	.	.	.	.
!LO:TX:t=P:problem=kreska pseudotaktowa	!	!	!	!LO:TX:t=P:problem=kreska pseudotaktowa	!	!	!
2A\	-ra	.	.	2F/	.	.	.
!	!	!	!	!	!	!LO:TX:t=P:problem=kreska pseudotaktowa	!
.	.	.	.	.	.	4e\	.
=56-	=56-	=56-	=56-	=56-	=56-	=56-	=56-
!	!	!LO:TX:t=P:problem=kreska pseudotaktowa	!	!	!	!	!
2B-\	Nos	1G	om-	2G/	-ni	2d\	.
!	!	!	!	!LO:TX:t=P:problem=kreska pseudotaktowa	!	!LO:TX:t=P:problem=kreska pseudotaktowa	!
2G\	ab	.	.	2E-X/	ma-	2c/	ab
*	*	*custos:B	*	*	*	*	*
2F\	om-	2A/	-ni	2D,/	-lo	2d\	om-
*	*	*	*	*	*Xij	*	*
!LO:TX:t=P:problem=kreska pseudotaktowa	!	!LO:PB:g=original	!	!LO:TX:t=P:problem=kreska pseudotaktowa	!	!LO:TX:t=P:problem=kreska pseudotaktowa	!
2D/	-ni	2.B-\	Ma-	2F/	ab	2d\	-ni
=57-	=57-	=57-	=57-	=57-	=57-	=57-	=57-
*lig	*	*	*	*	*	*	*
1Eny	Ma-	.	.	2G/	om-	2B-/	Ma-
.	.	4A/	.	.	.	.	.
*	*	*	*	*custos:A	*	*	*
!	!	!	!	!	!	!LO:TX:t=P:problem=kreska pseudotaktowa	!
.	.	1G	.	2G/	-ni	2c/	.
!	!	!	!	!LO:LB:g=original	!	!LO:TX:t=P:problem=kreska pseudotaktowa	!
1D	.	.	.	1A	Ma-	1d,	-lo
!	!	!LO:TX:t=P:problem=kreska pseudotaktowa	!	!	!	!	!
.	.	2F/	-lo	.	.	.	.
*Xlig	*	*	*	*	*	*	*
=58-	=58-	=58-	=58-	=58-	=58-	=58-	=58-
!LO:TX:t=P:problem=kreska pseudotaktowa	!	!LO:TX:t=P:problem=kreska pseudotaktowa	!	!LO:N:acc=#	!	!	!
!	!	!	!	!LO:TX:t=P:problem=kreska pseudotaktowa	!	!	!
1GG,<	-lo	1G	.	1Bn	-lo	(1d	Et
*	*Xij	*	*	*	*	*	*
1C	et	1G	et	1c	et	1e)	.
=59-	=59-	=59-	=59-	=59-	=59-	=59-	=59-
!	!	!	!	!	!	!LO:TX:t=P:problem=kreska pseudotaktowa	!
0BB-	O-	0B-	o-	0d	O-	0f	O-
=60-	=60-	=60-	=60-	=60-	=60-	=60-	=60-
!	!	!LO:TX:t=P:problem=kreska pseudotaktowa	!	!LO:TX:t=P:problem=kreska pseudotaktowa	!	!	!
1.C	-ra	0.G	-ra	0c	-ra	1.e	-ra
*	*	*	*	*	*	*	*ij
*custos:GG	*	*	*	*	*	*	*
!LO:TX:t=P:problem=kreska pseudotaktowa	!	!	!	!	!	!	!
!	!	!	!	!	!	!LO:TX:t=P:problem=kreska pseudotaktowa	!
2C/	et	.	.	.	.	2c/	et
=61-	=61-	=61-	=61-	=61-	=61-	=61-	=61-
!LO:LB:g=original	!	!	!	!	!	!	!
(1GG	O-	.	.	2.B-y\	pro	0d	o-
.	.	.	.	4B-\	pec-	.	.
1D)	.	2rF	.	2A/	-ca-	.	.
!	!	!LO:TX:t=P:problem=kreska pseudotaktowa	!	!LO:TX:t=P:problem=kreska pseudotaktowa	!	!	!
.	.	2A/	pro	2F/	-ta	.	.
=62-	=62-	=62-	=62-	=62-	=62-	=62-	=62-
!LO:TX:t=P:problem=kreska pseudotaktowa	!	!	!	!	!	!LO:TX:t=P:problem=kreska pseudotaktowa	!
1GG	-ra	2B-\	pec-	4G/	No-	0d	-ra
*	*	*	*	*	*	*	*Xij
.	.	.	.	4A/	.	.	.
.	.	1G	-ca-	4B-\	.	.	.
.	.	.	.	4G/	.	.	.
!	!	!	!	!LO:TX:t=P:problem=kreska pseudotaktowa	!	!	!
2r	.	.	.	1A	.	.	.
!	!	!LO:TX:t=P:problem=kreska pseudotaktowa	!	!	!	!	!
2D/	pro	2F/	-tis	.	.	.	.
=63-	=63-	=63-	=63-	=63-	=63-	=63-	=63-
!	!	!	!	!LO:TX:t=P:problem=kreska pseudotaktowa	!	!	!
2E-X\	pec-	2.G/	nos-	0G	-stris	1r	.
1C	-ca-	.	.	.	.	.	.
.	.	4F/	.	.	.	.	.
.	.	2Eny/	-tris	.	.	2r	.
*	*	*	*	*	*	*custos:e	*
!	!	!	!	!	!	!LO:TX:t=P:problem=kreska pseudotaktowa	!
!LO:TX:t=P:problem=kreska pseudotaktowa	!	!LO:TX:t=P:problem=kreska pseudotaktowa	!	!	!	!	!
2BB-/	-tis	2D/	.	.	.	2d\	pro
=64-	=64-	=64-	=64-	=64-	=64-	=64-	=64-
*	*	*custos:G	*	*	*	*	*
!	!	!	!	!	!	!LO:LB:g=original	!
1C	nos-	2r	.	1rA	.	2e-X\	pec-
*	*	*	*ij	*	*	*	*
!	!	!LO:LB:g=original	!	!	!	!	!
.	.	1G	Li-	.	.	1c	-ca-
!LO:TX:t=P:problem=kreska pseudotaktowa	!	!	!	!	!	!	!
1GG	-tris	.	.	2rF	.	.	.
!	!	!LO:TX:t=P:problem=kreska pseudotaktowa	!	!LO:TX:t=P:problem=kreska pseudotaktowa	!	!LO:TX:t=P:problem=kreska pseudotaktowa	!
.	.	2G/	-be-	2d\	pro	2B-/	-tis
=65-	=65-	=65-	=65-	=65-	=65-	=65-	=65-
1C	et	2G/	.	2e\	pec-	1c	noſ-
.	.	2E/	-ra	1c	-ca-	.	.
2C/	O-	1G	.	.	.	2G/	-tris
*	*	*	*	*	*	*	*ij
*	*	*	*	*custos:c	*	*	*
!LO:TX:t=P:problem=kreska pseudotaktowa	!	!	!	!LO:TX:t=P:problem=kreska pseudotaktowa	!	!LO:TX:t=P:problem=kreska pseudotaktowa	!
2GG/	-ra	.	.	2B-\	-ta	2d\	Li-
=66-	=66-	=66-	=66-	=66-	=66-	=66-	=66-
*	*	*	*	*lig	*	*	*
!	!	!LO:TX:t=P:problem=kreska pseudotaktowa	!	!LO:LB:g=original	!	!	!
2.C/	pro	1G	nos	1c	Nos-	2e-X\	.
.	.	.	.	.	.	1c	-be-
4D/	.	.	.	.	.	.	.
4Eny\	.	1r	.	1G	.	.	.
4F\	.	.	.	.	.	.	.
*custos:F	*	*	*	*	*	*	*
1G\	.	.	.	.	.	2B-/	-ra
!	!	!	!	!	!	!LO:TX:t=P:problem=kreska pseudotaktowa	!
*	*	*	*	*Xlig	*	*	*
=67-	=67-	=67-	=67-	=67-	=67-	=67-	=67-
!	!	!	!	!LO:TX:t=P:problem=kreska pseudotaktowa	!	!	!
.	.	2r	.	1D	-tris	1A	nos
!LO:TX:t=P:problem=kreska pseudotaktowa	!	!LO:TX:t=P:problem=kreska pseudotaktowa	!	!	!	!	!
!LO:LB:g=original	!	!	!	!	!	!	!
2F\	pec-	2A/	ab	.	.	.	.
2G\	-ca-	2B-\	.	1rA	.	2G,</	.
2G\	-tis	1G/	om-	.	.	1d\	ab
=68-	=68-	=68-	=68-	=68-	=68-	=68-	=68-
1D	Nos-	.	.	2rF	.	.	.
*	*	*	*	*	*ij	*	*
!	!	!LO:TX:t=P:problem=kreska pseudotaktowa	!	!LO:TX:t=P:problem=kreska pseudotaktowa	!	!LO:TX:t=P:problem=kreska pseudotaktowa	!
.	.	2F/	-ni	2A/	Li-	2d\	om-
!LO:TX:t=P:problem=kreska pseudotaktowa	!	!	!	!	!	!	!
1GG	-tris	1G	.	2B-\	-be-	2d\	-ni
.	.	.	.	1G/	-ra	2B-/	ma-
=69-	=69-	=69-	=69-	=69-	=69-	=69-	=69-
2r	.	2D/	ma-	.	.	1A	.
*	*ij	*	*	*	*	*	*
!	!	!LO:TX:t=P:problem=kreska pseudotaktowa	!	!LO:TX:t=P:problem=kreska pseudotaktowa	!	!	!
2D/	et	2d\	-lo	2F/	nos	.	.
!	!	!	!	!	!	!LO:TX:t=P:problem=kreska pseudotaktowa	!
2E-X\	.	2B-\	et	2.G/	ab	1G	-lo
1C/	o-	1c\	o-	.	.	.	.
.	.	.	.	4F/	om-	.	.
=70-	=70-	=70-	=70-	=70-	=70-	=70-	=70-
.	.	.	.	2Eny/	-ni	2r	.
*	*	*	*	*	*	*custos:e	*
!	!	!	!	!	!	!LO:TX:t=P:problem=kreska pseudotaktowa	!
!LO:TX:t=P:problem=kreska pseudotaktowa	!	!LO:TX:t=P:problem=kreska pseudotaktowa	!	!	!	!	!
2BB-/	.	2d\	-ra	2D/	ma-	2d\	et
!	!	!	!	!LO:TX:t=P:problem=kreska pseudotaktowa	!	!LO:LB:g=original	!
(1C	-ra	1c	pro	1G	-lo	2e-X\	.
.	.	.	.	.	.	1c\	o-
=71-	=71-	=71-	=71-	=71-	=71-	=71-	=71-
1GG)	.	2d\	pec-	2r	.	.	.
!	!	!	!	!	!	!LO:TX:t=P:problem=kreska pseudotaktowa	!
.	.	1G	-ca-	2d\	ab	2B-/	.
!LO:TX:t=P:problem=kreska pseudotaktowa	!	!	!	!	!	!	!
1C	.	.	.	2e\	.	1c	-ra
.	.	2G/	-tis	1c\	o-	.	.
=72-	=72-	=72-	=72-	=72-	=72-	=72-	=72-
!LO:TX:t=P:problem=kreska pseudotaktowa	!	!	!	!	!	!LO:TX:t=P:problem=kreska pseudotaktowa	!
1r	.	1G	nos-	.	.	1d	pro
!	!	!	!	!LO:TX:t=P:problem=kreska pseudotaktowa	!	!	!
.	.	.	.	2B-\	-ra	.	.
1D	pro	1F#X	.	1A	pro	2r	.
!	!	!	!	!	!	!LO:TX:t=P:problem=kreska pseudotaktowa	!
.	.	.	.	.	.	2d\	pec-
=73-	=73-	=73-	=73-	=73-	=73-	=73-	=73-
2E-X\	pec-	00.G;;	-tris	2G/	pec-	2B-/	-ca-
*	*	*	*Xij	*	*	*	*
1C	-ca-	.	.	1e	-ca-	1c	.
!LO:TX:t=P:problem=kreska pseudotaktowa	!	!	!	!	!	!LO:TX:t=P:problem=kreska pseudotaktowa	!
2BB-/	-tis	.	.	2d\	.	2d\	-tis
=74-	=74-	=74-	=74-	=74-	=74-	=74-	=74-
0C	nos-	.	.	2c\	.	0e-X	nos-
.	.	.	.	2G/	-tis	.	.
.	.	.	.	0c	no-	.	.
=75-	=75-	=75-	=75-	=75-	=75-	=75-	=75-
0GG;	-tris	.	.	.	.	0d;;	-tris
*	*Xij	*	*	*	*	*	*Xij
!	!	!	!	!LO:N:acc=#	!	!	!
!	!	!	!	!LO:N:vis=0	!	!	!
.	.	.	.	1Bny	-stris	.	.
*	*	*	*	*	*Xij	*	*
!LO:LB:g=original	!	!LO:LB:g=original	!	!LO:LB:g=original	!	!LO:LB:g=original	!
=||	=||	=||	=||	=||	=||	=||	=||
*-	*-	*-	*-	*-	*-	*-	*-
!!!system-decoration: [(s1,s2,s3,s4)]
!!!RDF**kern: < = below
!!!RDF**kern: > = above
!!!ENC: Marta Chmielewska
!!!END: 2021-03-29
!!!ENC: Andrzej Gręziak
!!!END: 2021-03-22
